X: 21894
T: Kissing Dance, The
R: polka
M: 2/4
K: Gmajor
g2 f|:e2 A2|A2 fe|ed BA|B2 Bc|
dd AB|cA FG|A2 G2|1 Gg- gf:|2 G2 GA||
|:B2 BA|Bd dB|BA AB|A2 Bc|
dd AB|cA FG|A2 G2|1 G2 GA:|2 Gg- gf||

